rospo-light/16x16/actions/curve-connector.svg

<svg height="16" viewBox="0 0 16 16" width="16" xmlns="http://www.w3.org/2000/svg"><path d="m12.5 1a2.4999375 2.4999275 0 0 0 -2.449219 2h-5.550781c-1.3806655 0-2.5 1.61934-2.5 3s1.1193345 3 2.5 3h7c .827979 0 1.5 1.172024 1.5 2s-.672021 2-1.5 2h-5.5546875a2.4999375 2.4999275 0 0 0 -2.4453125-2 2.4999375 2.4999275 0 0 0 -2.5 2.5 2.4999375 2.4999275 0 0 0 2.5 2.5 2.4999375 2.4999275 0 0 0 2.4492188-2h5.5507812c1.380965 0 2.5-1.61904 2.5-3 0-1.38066-1.119035-3-2.5-3h-7c-.8283793 0-1.5-1.171624-1.5-2s .6716207-2 1.5-2h5.554688a2.4999375 2.4999275 0 0 0 2.445312 2 2.4999375 2.4999275 0 0 0 2.5-2.5 2.4999375 2.4999275 0 0 0 -2.5-2.5z" fill="#5c616c"/></svg>

<?xml version="1.0" encoding="UTF-8" standalone="no"?>
<svg xmlns="http://www.w3.org/2000/svg" width="22" height="22" viewBox="0 0 22 22">
 <defs>
  <style type="text/css" id="current-color-scheme">
   .ColorScheme-Text { color:#5c616c; } .ColorScheme-Highlight { color:#5294e2; }
  </style>
 </defs>
 <path style="fill:currentColor;opacity:1" class="ColorScheme-Text" transform="translate(3 3)" d="M 12.5 1 A 2.4999375 2.4999275 0 0 0 10.050781 3 L 4.5 3 C 3.1193345 3 2 4.61934 2 6 C 2 7.38066 3.1193345 9 4.5 9 L 11.5 9 C 12.327979 9 13 10.172024 13 11 C 13 11.827976 12.327979 13 11.5 13 L 5.9453125 13 A 2.4999375 2.4999275 0 0 0 3.5 11 A 2.4999375 2.4999275 0 0 0 1 13.5 A 2.4999375 2.4999275 0 0 0 3.5 16 A 2.4999375 2.4999275 0 0 0 5.9492188 14 L 11.5 14 C 12.880965 14 14 12.38096 14 11 C 14 9.61934 12.880965 8 11.5 8 L 4.5 8 C 3.6716207 8 3 6.828376 3 6 C 3 5.171624 3.6716207 4 4.5 4 L 10.054688 4 A 2.4999375 2.4999275 0 0 0 12.5 6 A 2.4999375 2.4999275 0 0 0 15 3.5 A 2.4999375 2.4999275 0 0 0 12.5 1 z"/>
</svg>
